src/topics/icons/flight.svg

<svg height="353" preserveAspectRatio="xMidYMid" viewBox="0 0 256 353" width="256" xmlns="http://www.w3.org/2000/svg"><path d="m0 213.753188c2.18192916-44.281024 22.4868447-83.376479 65.448109-108.665373 59.817504-35.212207 120.173515-69.5092315 180.25818-104.26942766 2.485362-1.43764578 3.209417-1.02469755 4.221558 1.58482833 14.476207 37.33065943.561526 76.78116623-25.4577 99.93974933-2.262845 2.014518-4.820054 3.620272-7.444229 5.134648-31.27176 18.039979-62.536545 36.091815-93.792261 54.1583-4.466398 2.581624-6.703434 6.859684-6.006583 11.225635.761722 4.775412 4.619858 8.731902 9.373645 9.595466 3.068513.557341 5.673156-.694757 8.211532-2.159608 30.663498-17.696784 61.325602-35.394964 91.987008-53.093842 2.915749-1.683182 5.880327-3.288937 8.723531-5.086517 1.64133-1.037951 2.346551-.674529 2.98969 1.063062 4.486626 12.123379 6.884795 24.595532 5.991934 37.542714-1.958016 28.37624-14.332512 51.273243-37.586659 67.571444-11.176109 7.833461-23.536654 13.978158-35.371248 20.869232-5.316709 3.096414-10.505766 6.463477-16.021973 9.156708-12.521678 6.113308-18.593133 16.865308-21.362398 29.695303-5.728261 26.537504 15.290943 51.943586 42.45345 51.711302 1.499727-.013253 2.99806-.269951 4.494997-.435967 1.334409-.14788 2.37794.382256 2.724621 1.628076.32715 1.174671-.489678 2.004752-1.539487 2.398169-3.468905 1.299532-6.913395 2.694627-10.45345 3.768153-69.502256 21.074311-144.8074114-19.136523-165.93682831-88.584371-3.94881744-12.979967-5.59642507-26.306615-5.90543869-44.747684" fill="#00acee"/></svg>

<?xml version="1.0" encoding="UTF-8" standalone="no"?>
<svg width="256px" height="353px" viewBox="0 0 256 353" version="1.1" xmlns="http://www.w3.org/2000/svg" xmlns:xlink="http://www.w3.org/1999/xlink" preserveAspectRatio="xMidYMid">
    <g>
        <path d="M0,213.753188 C2.18192916,169.472164 22.4868447,130.376709 65.448109,105.087815 C125.265613,69.875608 185.621624,35.5785835 245.706289,0.818387336 C248.191651,-0.619258441 248.915706,-0.206310212 249.927847,2.40321567 C264.404054,39.7338751 250.489373,79.1843819 224.470147,102.342965 C222.207302,104.357483 219.650093,105.963237 217.025918,107.477613 C185.754158,125.517592 154.489373,143.569428 123.233657,161.635913 C118.767259,164.217537 116.530223,168.495597 117.227074,172.861548 C117.988796,177.63696 121.846932,181.59345 126.600719,182.457014 C129.669232,183.014355 132.273875,181.762257 134.812251,180.297406 C165.475749,162.600622 196.137853,144.902442 226.799259,127.203564 C229.715008,125.520382 232.679586,123.914627 235.52279,122.117047 C237.16412,121.079096 237.869341,121.442518 238.51248,123.180109 C242.999106,135.303488 245.397275,147.775641 244.504414,160.722823 C242.546398,189.099063 230.171902,211.996066 206.917755,228.294267 C195.741646,236.127728 183.381101,242.272425 171.546507,249.163499 C166.229798,252.259913 161.040741,255.626976 155.524534,258.320207 C143.002856,264.433515 136.931401,275.185515 134.162136,288.01551 C128.433875,314.553014 149.453079,339.959096 176.615586,339.726812 C178.115313,339.713559 179.613646,339.456861 181.110583,339.290845 C182.444992,339.142965 183.488523,339.673101 183.835204,340.918921 C184.162354,342.093592 183.345526,342.923673 182.295717,343.31709 C178.826812,344.616622 175.382322,346.011717 171.842267,347.085243 C102.340011,368.159554 27.0348556,327.94872 5.90543869,258.500872 C1.95662125,245.520905 0.309013624,232.194257 0,213.753188" fill="#00ACEE"></path>
    </g>
</svg>
